dist/svg/discover.svg

<!-- Generated by Trend Micro Style Portal -->
<svg version="1.1" xmlns="http://www.w3.org/2000/svg" width="16" height="16" viewBox="0 0 16 16">
  <title>discover</title>
  <path fill="rgb(34,34,34)" d="M13.875 3h-0.875v-1h1v-1h-5v1h1v1h-4v-1h1v-1h-5v1h1v1h-0.875c-0.621 0.002-1.123 0.504-1.125 1.125v0l-1 9.75c0.002 0.621 0.504 1.123 1.125 1.125h4.75c0.621-0.002 1.123-0.504 1.125-1.125v-5.875h2v5.875c0.002 0.621 0.504 1.123 1.125 1.125h4.75c0.621-0.002 1.123-0.504 1.125-1.125v-0l-1-9.75c-0.002-0.621-0.504-1.123-1.125-1.125h-0zM5.438 14h-3.875c-0.018 0.002-0.038 0.004-0.059 0.004-0.278 0-0.504-0.225-0.504-0.504s0.225-0.504 0.504-0.504c0.021 0 0.042 0.001 0.062 0.004l-0.002-0h3.875c0.018-0.002 0.038-0.004 0.059-0.004 0.278 0 0.504 0.225 0.504 0.504s-0.225 0.504-0.504 0.504c-0.021 0-0.042-0.001-0.062-0.004l0.002 0zM8.5 6h-1c-0.276 0-0.5-0.224-0.5-0.5s0.224-0.5 0.5-0.5v0h1c0.276 0 0.5 0.224 0.5 0.5s-0.224 0.5-0.5 0.5v0zM14.438 14h-3.875c-0.018 0.002-0.038 0.004-0.059 0.004-0.278 0-0.504-0.225-0.504-0.504s0.225-0.504 0.504-0.504c0.021 0 0.042 0.001 0.062 0.004l-0.002-0h3.875c0.018-0.002 0.038-0.004 0.059-0.004 0.278 0 0.504 0.225 0.504 0.504s-0.225 0.504-0.504 0.504c-0.021 0-0.042-0.001-0.062-0.004l0.002 0z"></path>
</svg>

<svg width="16" height="16" viewBox="0 0 16 16" fill="rgb(34, 34, 34)" xmlns="http://www.w3.org/2000/svg"><title>discover</title><path d="M13.875 3H13V2H14V1H9V2H10V3H6V2H7V1H2V2H3V3H2.125C1.504 3.002 1.002 3.504 1 4.125L0 13.875C0.002 14.496 0.504 14.998 1.125 15H5.875C6.496 14.998 6.998 14.496 7 13.875V8H9V13.875C9.002 14.496 9.504 14.998 10.125 15H14.875C15.496 14.998 15.998 14.496 16 13.875L15 4.125C14.998 3.504 14.496 3.002 13.875 3ZM5.438 14H1.563C1.545 14.002 1.525 14.004 1.504 14.004C1.226 14.004 1 13.779 1 13.5C1 13.221 1.225 12.996 1.504 12.996C1.525 12.996 1.546 12.997 1.566 13H1.564H5.439C5.457 12.998 5.477 12.996 5.498 12.996C5.776 12.996 6.002 13.221 6.002 13.5C6.002 13.779 5.777 14.004 5.498 14.004C5.477 14.004 5.456 14.003 5.436 14H5.438ZM8.5 6H7.5C7.224 6 7 5.776 7 5.5C7 5.224 7.224 5 7.5 5H8.5C8.776 5 9 5.224 9 5.5C9 5.776 8.776 6 8.5 6ZM14.438 14H10.563C10.545 14.002 10.525 14.004 10.504 14.004C10.226 14.004 10 13.779 10 13.5C10 13.221 10.225 12.996 10.504 12.996C10.525 12.996 10.546 12.997 10.566 13H10.564H14.439C14.457 12.998 14.477 12.996 14.498 12.996C14.776 12.996 15.002 13.221 15.002 13.5C15.002 13.779 14.777 14.004 14.498 14.004C14.477 14.004 14.456 14.003 14.436 14H14.438Z" fill="rgb(34, 34, 34)" fill-opacity="1.00"/></svg>
